X:165
T: Cock in the Heath (The)
N: O'Farrell's Pocket Companion v.2 (Sky ed. p.83)
N: "Irish"
M: 9/8
L: 1/8
R: slip jig
Q: 320
K: Dmix
A2d FDD F2E|FDD G2B AFD|A2d FDD F2E|FDD FAF GEC :|
G2c BdB c2A|BAG GAG cAF|G2c BdB c2A|BAG FAF GEC :|
